src/matting/luts/hlg_to_sdr.cube
# HLG(arib-std-b67,bt2020) -> SDR bt709. gain2.0 sysg1.2 sat0.65
LUT_3D_SIZE 33
0.000000 0.000000 0.000000
0.000541 0.000056 0.000056
0.002857 0.000293 0.000293
0.007560 0.000777 0.000777
0.015080 0.001549 0.001549
0.025762 0.002646 0.002646
0.039904 0.004099 0.004099
0.057768 0.005934 0.005934
0.078056 0.008018 0.008018
0.098373 0.010105 0.010105
0.118872 0.012210 0.012210
0.139535 0.014333 0.014333
0.160350 0.016471 0.016471
0.181303 0.018623 0.018623
0.202387 0.020789 0.020789
0.223591 0.022967 0.022967
0.244909 0.025157 0.025157
0.267573 0.027485 0.027485
0.292987 0.030095 0.030095
0.321412 0.033015 0.033015
0.353132 0.036273 0.036273
0.388457 0.039902 0.039902
0.427725 0.043935 0.043935
0.471306 0.048412 0.048412
0.519604 0.053373 0.053373
0.573066 0.058864 0.058864
0.632179 0.064936 0.064936
0.697483 0.071644 0.071644
0.724410 0.074410 0.074410
0.724410 0.074410 0.074410
0.724410 0.074410 0.074410
0.724410 0.074410 0.074410
0.724410 0.074410 0.074410
0.000154 0.000555 0.000154
0.000598 0.000574 0.000193
0.002981 0.000670 0.000400
0.007641 0.000793 0.000787
0.015194 0.001561 0.001561
0.025901 0.002661 0.002661
0.040062 0.004115 0.004115
0.057942 0.005952 0.005952
0.078216 0.008034 0.008034
0.098518 0.010120 0.010120
0.119005 0.012224 0.012224
0.139658 0.014345 0.014345
0.160464 0.016483 0.016483
0.181410 0.018634 0.018634
0.202487 0.020799 0.020799
0.223685 0.022976 0.022976
0.244997 0.025166 0.025166
0.267657 0.027493 0.027493
0.293066 0.030103 0.030103
0.321486 0.033022 0.033022
0.353202 0.036280 0.036280
0.388522 0.039908 0.039908
0.427786 0.043941 0.043941
0.471362 0.048417 0.048417
0.519657 0.053378 0.053378
0.573115 0.058869 0.058869
0.632225 0.064941 0.064941
0.697525 0.071648 0.071648
0.724410 0.074410 0.074410
0.724410 0.074410 0.074410
0.724410 0.074410 0.074410
0.724410 0.074410 0.074410
0.724410 0.074410 0.074410
0.000814 0.002928 0.000814
0.000807 0.002901 0.000807
0.003156 0.003028 0.001018
0.008118 0.003261 0.001457
0.015735 0.003538 0.002110
0.026369 0.003847 0.003001
0.040329 0.004183 0.004153
0.058285 0.005987 0.005987
0.078565 0.008070 0.008070
0.098861 0.010155 0.010155
0.119335 0.012258 0.012258
0.139973 0.014378 0.014378
0.160764 0.016513 0.016513
0.181696 0.018663 0.018663
0.202759 0.020827 0.020827
0.223945 0.023003 0.023003
0.245245 0.025191 0.025191
0.267893 0.027518 0.027518
0.293291 0.030126 0.030126
0.321699 0.033044 0.033044
0.353402 0.036301 0.036301
0.388711 0.039928 0.039928
0.427963 0.043960 0.043960
0.471528 0.048434 0.048434
0.519812 0.053394 0.053394
0.573259 0.058884 0.058884
0.632360 0.064955 0.064955
0.697650 0.071661 0.071661
0.724410 0.074410 0.074410
0.724410 0.074410 0.074410
0.724410 0.074410 0.074410
0.724410 0.074410 0.074410
0.724410 0.074410 0.074410
0.002155 0.007749 0.002155
0.002146 0.007719 0.002146
0.002970 0.007696 0.002203
0.008352 0.008012 0.002695
0.016376 0.008408 0.003409
0.027369 0.008863 0.004365
0.041637 0.009363 0.005583
0.059456 0.009899 0.007081
0.079404 0.010297 0.008706
0.099195 0.010296 0.010217
0.119680 0.012293 0.012293
0.140339 0.014415 0.014415
0.161139 0.016552 0.016552
0.182071 0.018702 0.018702
0.203130 0.020865 0.020865
0.224308 0.023041 0.023041
0.245601 0.025228 0.025228
0.268239 0.027553 0.027553
0.293624 0.030161 0.030161
0.322020 0.033077 0.033077
0.353709 0.036332 0.036332
0.389003 0.039958 0.039958
0.428240 0.043988 0.043988
0.471790 0.048461 0.048461
0.520058 0.053419 0.053419
0.573491 0.058908 0.058908
0.632577 0.064977 0.064977
0.697853 0.071682 0.071682
0.724410 0.074410 0.074410
0.724410 0.074410 0.074410
0.724410 0.074410 0.074410
0.724410 0.074410 0.074410
0.724410 0.074410 0.074410
0.004297 0.015457 0.004297
0.004288 0.015424 0.004288
0.004257 0.015312 0.004257
0.008149 0.015490 0.004600
0.016659 0.015980 0.005376
0.028131 0.016560 0.006400
0.042846 0.017212 0.007691
0.061070 0.017920 0.009264
0.081428 0.018508 0.010969
0.101502 0.018699 0.012551
0.121524 0.018491 0.014026
0.141517 0.017865 0.015391
0.161490 0.016802 0.016643
0.182404 0.018736 0.018736
0.203489 0.020902 0.020902
0.224684 0.023079 0.023079
0.245985 0.025267 0.025267
0.268627 0.027593 0.027593
0.294012 0.030200 0.030200
0.322403 0.033117 0.033117
0.354085 0.036371 0.036371
0.389368 0.039995 0.039995
0.428592 0.044024 0.044024
0.472128 0.048496 0.048496
0.520381 0.053453 0.053453
0.573797 0.058939 0.058939
0.632866 0.065007 0.065007
0.698125 0.071710 0.071710
0.724410 0.074410 0.074410
0.724410 0.074410 0.074410
0.724410 0.074410 0.074410
0.724410 0.074410 0.074410
0.724410 0.074410 0.074410
0.007342 0.026406 0.007342
0.007332 0.026371 0.007332
0.007300 0.026255 0.007300
0.007433 0.026052 0.007258
0.016448 0.026617 0.008091
0.028459 0.027300 0.009184
0.043711 0.028083 0.010549
0.062448 0.028946 0.012201
0.083483 0.029731 0.014008
0.104050 0.030119 0.015678
0.124428 0.030111 0.017231
0.144688 0.029687 0.018669
0.164868 0.028830 0.019990
0.184987 0.027522 0.021190
0.205053 0.025745 0.022265
0.225069 0.023484 0.023212
0.246306 0.025300 0.025300
0.268978 0.027629 0.027629
0.294385 0.030239 0.030239
0.322790 0.033156 0.033156
0.354480 0.036412 0.036412
0.389766 0.040036 0.040036
0.428987 0.044065 0.044065
0.472515 0.048536 0.048536
0.520757 0.053491 0.053491
0.574160 0.058977 0.058977
0.633213 0.065042 0.065042
0.698456 0.071744 0.071744
0.724410 0.074410 0.074410
0.724410 0.074410 0.074410
0.724410 0.074410 0.074410
0.724410 0.074410 0.074410
0.724410 0.074410 0.074410
0.011372 0.040901 0.011372
0.011361 0.040864 0.011361
0.011328 0.040743 0.011328
0.011266 0.040519 0.011266
0.015674 0.040622 0.011629
0.028245 0.041392 0.012786
0.044081 0.042286 0.014225
0.063404 0.043287 0.015957
0.085372 0.044269 0.017886
0.106680 0.044857 0.019664
0.127596 0.045048 0.021309
0.148263 0.044827 0.022830
0.168758 0.044177 0.024228
0.189128 0.043082 0.025502
0.209399 0.041522 0.026649
0.229586 0.039482 0.027666
0.249696 0.036945 0.028549
0.270886 0.033705 0.029335
0.294667 0.030268 0.030268
0.323117 0.033190 0.033190
0.354841 0.036449 0.036449
0.390150 0.040075 0.040075
0.429385 0.044106 0.044106
0.472919 0.048577 0.048577
0.521161 0.053533 0.053533
0.574558 0.059017 0.059017
0.633602 0.065082 0.065082
0.698831 0.071783 0.071783
0.724410 0.074410 0.074410
0.724410 0.074410 0.074410
0.724410 0.074410 0.074410
0.724410 0.074410 0.074410
0.724410 0.074410 0.074410
0.016463 0.059212 0.016463
0.016452 0.059172 0.016452
0.016417 0.059047 0.016417
0.016354 0.058819 0.016354
0.016255 0.058462 0.016255
0.027426 0.059106 0.017273
0.043868 0.060097 0.018782
0.063816 0.061217 0.020593
0.086904 0.062392 0.022657
0.109252 0.063187 0.024567
0.130920 0.063577 0.026321
0.152153 0.063555 0.027937
0.173089 0.063109 0.029420
0.193809 0.062223 0.030775
0.214366 0.060879 0.031999
0.234790 0.059061 0.033091
0.255101 0.056751 0.034048
0.276473 0.053755 0.034911
0.300187 0.049723 0.035685
0.326414 0.044354 0.036309
0.355329 0.037272 0.036697
0.390469 0.040108 0.040108
0.429744 0.044142 0.044142
0.473305 0.048617 0.048617
0.521563 0.053574 0.053574
0.574968 0.059060 0.059060
0.634011 0.065124 0.065124
0.699236 0.071824 0.071824
0.724410 0.074410 0.074410
0.724410 0.074410 0.074410
0.724410 0.074410 0.074410
0.724410 0.074410 0.074410
0.724410 0.074410 0.074410
0.022673 0.081549 0.022673
0.022663 0.081510 0.022663
0.022628 0.081387 0.022628
0.022567 0.081168 0.022567
0.022474 0.080830 0.022474
0.025974 0.080720 0.022713
0.043032 0.081830 0.024300
0.063637 0.083095 0.026197
0.087897 0.084489 0.028408
0.111677 0.085549 0.030495
0.134358 0.086168 0.032386
0.156281 0.086125 0.034048
0.177797 0.085878 0.035627
0.198980 0.085195 0.037069
0.219913 0.084061 0.038376
0.240649 0.082459 0.039547
0.261223 0.080373 0.040582
0.282833 0.077621 0.041525
0.306774 0.073868 0.042389
0.333218 0.068817 0.043110
0.362341 0.062095 0.043607
0.394318 0.053235 0.043773
0.430020 0.044171 0.044171
0.473635 0.048651 0.048651
0.521932 0.053612 0.053612
0.575362 0.059100 0.059100
0.634421 0.065167 0.065167
0.699651 0.071867 0.071867
0.724410 0.074410 0.074410
0.724410 0.074410 0.074410
0.724410 0.074410 0.074410
0.724410 0.074410 0.074410
0.724410 0.074410 0.074410
0.029111 0.104702 0.029111
0.029101 0.104667 0.029101
0.029071 0.104558 0.029071
0.029017 0.104366 0.029017
0.028936 0.104075 0.028936
0.028822 0.103664 0.028822
0.040599 0.104336 0.029894
0.061888 0.105820 0.031900
0.087125 0.107514 0.034262
0.112910 0.109040 0.036622
0.136988 0.110135 0.038741
0.160030 0.110833 0.040680
0.182388 0.111138 0.042465
0.204264 0.111032 0.044107
0.225780 0.110488 0.045610
0.247014 0.109468 0.046969
0.268010 0.107926 0.048176
0.289988 0.105661 0.049272
0.314175 0.102045 0.050190
0.340889 0.097309 0.051013
0.370269 0.090948 0.051622
0.402491 0.082499 0.051912
0.437729 0.071381 0.051747
0.476150 0.056870 0.050954
0.522235 0.053643 0.053643
0.575715 0.059136 0.059136
0.634808 0.065206 0.065206
0.700058 0.071909 0.071909
0.724410 0.074410 0.074410
0.724410 0.074410 0.074410
0.724410 0.074410 0.074410
0.724410 0.074410 0.074410
0.724410 0.074410 0.074410
0.035606 0.128062 0.035606
0.035597 0.128030 0.035597
0.035570 0.127932 0.035570
0.035522 0.127761 0.035522
0.035451 0.127504 0.035451
0.035351 0.127148 0.035351
0.036249 0.126778 0.035325
0.058210 0.128436 0.037427
0.083987 0.130329 0.039881
0.112265 0.132296 0.042545
0.138147 0.133811 0.044910
0.162490 0.134935 0.047057
0.185853 0.135699 0.049037
0.208548 0.136106 0.050874
0.230760 0.136147 0.052580
0.252609 0.135802 0.054159
0.274171 0.135042 0.055610
0.296721 0.133752 0.057000
0.321604 0.131661 0.058363
0.348977 0.128427 0.059622
0.378977 0.123538 0.060656
0.411684 0.116186 0.061265
0.447148 0.105339 0.061187
0.485839 0.091357 0.060550
0.527856 0.073145 0.059080
0.575997 0.059165 0.059165
0.635147 0.065241 0.065241
0.700438 0.071948 0.071948
0.724410 0.074410 0.074410
0.724410 0.074410 0.074410
0.724410 0.074410 0.074410
0.724410 0.074410 0.074410
0.724410 0.074410 0.074410
0.042153 0.151610 0.042153
0.042145 0.151581 0.042145
0.042120 0.151492 0.042120
0.042077 0.151336 0.042077
0.042013 0.151107 0.042013
0.041925 0.150791 0.041925
0.041809 0.150375 0.041809
0.052523 0.150957 0.042777
0.079011 0.153027 0.045331
0.109307 0.155339 0.048237
0.137604 0.157274 0.050894
0.163587 0.158781 0.053264
0.188168 0.159930 0.055436
0.211820 0.160749 0.057452
0.234820 0.161242 0.059334
0.257341 0.161402 0.061095
0.279495 0.161216 0.062738
0.302613 0.160620 0.064350
0.328089 0.159434 0.065990
0.356104 0.157407 0.067608
0.386835 0.154180 0.069126
0.420441 0.149222 0.070418
0.457030 0.141704 0.071280
0.496581 0.130224 0.071351
0.538909 0.112643 0.070068
0.584681 0.089759 0.067685
0.635415 0.065269 0.065269
0.700769 0.071982 0.071982
0.724410 0.074410 0.074410
0.724410 0.074410 0.074410
0.724410 0.074410 0.074410
0.724410 0.074410 0.074410
0.724410 0.074410 0.074410
0.048748 0.175330 0.048748
0.048740 0.175303 0.048740
0.048718 0.175221 0.048718
0.048678 0.175079 0.048678
0.048620 0.174871 0.048620
0.048541 0.174587 0.048541
0.048438 0.174217 0.048438
0.048307 0.173745 0.048307
0.071941 0.175604 0.050589
0.103189 0.178117 0.053619
0.135013 0.180546 0.056673
0.163126 0.182433 0.059303
0.189213 0.183933 0.061680
0.214010 0.185105 0.063874
0.237924 0.185970 0.065922
0.261204 0.186535 0.067844
0.284007 0.186796 0.069652
0.307729 0.186728 0.071445
0.333809 0.186216 0.073305
0.362442 0.185063 0.075194
0.393830 0.182999 0.077060
0.428171 0.179635 0.078818
0.465644 0.174399 0.080334
0.506376 0.166401 0.081390
0.550360 0.154144 0.081600
0.597239 0.134727 0.080192
0.646837 0.105747 0.076536
0.701031 0.072009 0.072009
0.724410 0.074410 0.074410
0.724410 0.074410 0.074410
0.724410 0.074410 0.074410
0.724410 0.074410 0.074410
0.724410 0.074410 0.074410
0.055387 0.199209 0.055387
0.055380 0.199184 0.055380
0.055359 0.199108 0.055359
0.055323 0.198977 0.055323
0.055270 0.198787 0.055270
0.055198 0.198529 0.055198
0.055105 0.198194 0.055105
0.054988 0.197772 0.054988
0.062707 0.198059 0.055650
0.094692 0.200729 0.058778
0.129832 0.203600 0.062198
0.160827 0.205909 0.065157
0.188821 0.207758 0.067769
0.215011 0.209254 0.070152
0.240005 0.210445 0.072366
0.264159 0.211351 0.074443
0.287695 0.211978 0.076400
0.312081 0.212335 0.078354
0.338806 0.212350 0.080398
0.368075 0.211869 0.082508
0.400106 0.210676 0.084647
0.435123 0.208471 0.086754
0.473344 0.204822 0.088735
0.514969 0.199094 0.090441
0.560134 0.190295 0.091630
0.608829 0.176755 0.091870
0.660642 0.155210 0.090292
0.714496 0.119836 0.085319
0.724410 0.074410 0.074410
0.724410 0.074410 0.074410
0.724410 0.074410 0.074410
0.724410 0.074410 0.074410
0.724410 0.074410 0.074410
0.062067 0.223236 0.062067
0.062061 0.223212 0.062061
0.062041 0.223141 0.062041
0.062007 0.223020 0.062007
0.061958 0.222844 0.061958
0.061893 0.222607 0.061893
0.061808 0.222302 0.061808
0.061701 0.221920 0.061701
0.061571 0.221451 0.061571
0.083954 0.223200 0.063729
0.121127 0.226361 0.067378
0.156269 0.229195 0.070789
0.186759 0.231420 0.073688
0.214677 0.233238 0.076286
0.240968 0.234731 0.078676
0.266145 0.235940 0.080909
0.290519 0.236881 0.083011
0.315650 0.237593 0.085113
0.343083 0.238041 0.087322
0.373033 0.238099 0.089623
0.405728 0.237591 0.091989
0.441411 0.236276 0.094375
0.480327 0.233812 0.096713
0.522720 0.229712 0.098896
0.568803 0.223250 0.100755
0.618717 0.213291 0.102007
0.672421 0.197890 0.102152
0.729387 0.173173 0.100153
0.738563 0.125315 0.088563
0.724410 0.074410 0.074410
0.724410 0.074410 0.074410
0.724410 0.074410 0.074410
0.724410 0.074410 0.074410
0.068786 0.247400 0.068786
0.068780 0.247378 0.068780
0.068761 0.247312 0.068761
0.068730 0.247199 0.068730
0.068684 0.247035 0.068684
0.068623 0.246816 0.068623
0.068545 0.246535 0.068545
0.068448 0.246186 0.068448
0.068330 0.245759 0.068330
0.070912 0.245526 0.068467
0.108672 0.248813 0.072194
0.148779 0.252238 0.076135
0.182693 0.254912 0.079410
0.212813 0.257071 0.082264
0.240684 0.258863 0.084852
0.267073 0.260355 0.087250
0.292420 0.261579 0.089499
0.318398 0.262601 0.091745
0.346621 0.263417 0.094109
0.377314 0.263923 0.096582
0.410717 0.263974 0.099145
0.447087 0.263371 0.101766
0.486691 0.261835 0.104395
0.529800 0.258975 0.106952
0.576678 0.254227 0.109311
0.627549 0.246746 0.111273
0.682545 0.235190 0.112504
0.741567 0.217219 0.112394
0.754576 0.182906 0.104576
0.737631 0.121962 0.087631
0.724410 0.074410 0.074410
0.724410 0.074410 0.074410
0.724410 0.074410 0.074410
0.075540 0.271694 0.075540
0.075534 0.271673 0.075534
0.075517 0.271611 0.075517
0.075488 0.271504 0.075488
0.075445 0.271351 0.075445
0.075388 0.271148 0.075388
0.075316 0.270888 0.075316
0.075227 0.270565 0.075227
0.075118 0.270174 0.075118
0.074988 0.269706 0.074988
0.094018 0.271123 0.076804
0.137145 0.274924 0.081073
0.176111 0.278196 0.084888
0.209144 0.280749 0.088065
0.238987 0.282855 0.090884
0.266834 0.284625 0.093464
0.293319 0.286115 0.095869
0.320271 0.287418 0.098261
0.349387 0.288559 0.100777
0.380903 0.289451 0.103412
0.415075 0.289973 0.106154
0.452173 0.289957 0.108982
0.492481 0.289174 0.111858
0.536296 0.287299 0.114722
0.583913 0.283876 0.117478
0.635613 0.278241 0.119977
0.691624 0.269386 0.121979
0.752052 0.255686 0.123074
0.767433 0.229151 0.117433
0.755218 0.185216 0.105218
0.734130 0.109371 0.084130
0.724410 0.074410 0.074410
0.724410 0.074410 0.074410
0.082721 0.297522 0.082721
0.082716 0.297503 0.082716
0.082700 0.297444 0.082700
0.082672 0.297344 0.082672
0.082632 0.297201 0.082632
0.082579 0.297011 0.082579
0.082512 0.296769 0.082512
0.082429 0.296472 0.082429
0.082329 0.296112 0.082329
0.082210 0.295683 0.082210
0.082070 0.295178 0.082070
0.119707 0.298473 0.085789
0.165470 0.302513 0.090320
0.202853 0.305595 0.093965
0.235398 0.308075 0.097087
0.265146 0.310153 0.099891
0.293070 0.311920 0.102477
0.321223 0.313503 0.105033
0.351418 0.314957 0.107711
0.383913 0.316210 0.110513
0.418981 0.317162 0.113435
0.456910 0.317673 0.116462
0.498004 0.317551 0.119567
0.542580 0.316525 0.122707
0.590962 0.314221 0.125808
0.643471 0.310102 0.128759
0.700402 0.303380 0.131379
0.761984 0.292851 0.133376
0.779203 0.271481 0.129203
0.769725 0.237395 0.119725
0.754892 0.184044 0.104892
0.728353 0.088592 0.078353
0.724410 0.074410 0.074410
0.090774 0.326484 0.090774
0.090769 0.326466 0.090769
0.090753 0.326410 0.090753
0.090727 0.326317 0.090727
0.090690 0.326183 0.090690
0.090641 0.326006 0.090641
0.090579 0.325782 0.090579
0.090502 0.325507 0.090502
0.090410 0.325177 0.090410
0.090301 0.324784 0.090301
0.090173 0.324325 0.090173
0.097088 0.324517 0.090751
0.146540 0.329000 0.095677
0.191992 0.332986 0.100171
0.228748 0.335987 0.103747
0.261241 0.338450 0.106860
0.291150 0.340540 0.109680
0.320909 0.342431 0.112438
0.352511 0.344214 0.115308
0.386257 0.345832 0.118300
0.422449 0.347207 0.121415
0.461401 0.348223 0.124650
0.503440 0.348721 0.127987
0.548907 0.348478 0.131395
0.598153 0.347183 0.134823
0.651536 0.344402 0.138183
0.709402 0.339509 0.141344
0.772064 0.331580 0.144092
0.791075 0.314181 0.141075
0.783415 0.286633 0.133415
0.772305 0.246673 0.122305
0.754302 0.181923 0.104302
0.724410 0.074410 0.074410
0.099780 0.358877 0.099780
0.099775 0.358860 0.099775
0.099761 0.358808 0.099761
0.099737 0.358720 0.099737
0.099702 0.358596 0.099702
0.099656 0.358431 0.099656
0.099599 0.358224 0.099599
0.099528 0.357971 0.099528
0.099444 0.357667 0.099444
0.099344 0.357309 0.099344
0.099228 0.356890 0.099228
0.099093 0.356407 0.099093
0.118242 0.357835 0.100922
0.172730 0.362819 0.106361
0.217048 0.366677 0.110735
0.253839 0.369675 0.114314
0.286638 0.372168 0.117458
0.318630 0.374419 0.120478
0.352125 0.376562 0.123586
0.387507 0.378563 0.126800
0.425138 0.380362 0.130135
0.465373 0.381869 0.133594
0.508573 0.382954 0.137170
0.555110 0.383436 0.140847
0.605363 0.383059 0.144586
0.659724 0.381468 0.148327
0.718584 0.378161 0.151971
0.782320 0.372413 0.155361
0.803320 0.358225 0.153320
0.796990 0.335458 0.146990
0.788176 0.303754 0.138176
0.775212 0.257128 0.125212
0.753365 0.178551 0.103365
0.109831 0.395025 0.109831
0.109826 0.395009 0.109826
0.109813 0.394960 0.109813
0.109790 0.394879 0.109790
0.109758 0.394763 0.109758
0.109715 0.394610 0.109715
0.109662 0.394418 0.109662
0.109597 0.394185 0.109597
0.109520 0.393907 0.109520
0.109429 0.393579 0.109429
0.109323 0.393199 0.109323
0.109201 0.392761 0.109201
0.109062 0.392261 0.109062
0.138095 0.394692 0.111903
0.196054 0.400023 0.117696
0.240630 0.403904 0.122096
0.278014 0.406965 0.125736
0.313297 0.409670 0.129124
0.349446 0.412235 0.132542
0.387040 0.414654 0.136033
0.426560 0.416894 0.139625
0.468440 0.418890 0.143335
0.513098 0.420541 0.147169
0.560946 0.421703 0.151119
0.612405 0.422166 0.155167
0.667900 0.421643 0.159269
0.727864 0.419726 0.163354
0.792728 0.415841 0.167308
0.816146 0.404354 0.166146
0.810844 0.385286 0.160844
0.803642 0.359383 0.153642
0.793545 0.323067 0.143545
0.778490 0.268918 0.128490
0.121023 0.435281 0.121023
0.121019 0.435266 0.121019
0.121006 0.435221 0.121006
0.120985 0.435145 0.120985
0.120955 0.435037 0.120955
0.120916 0.434895 0.120916
0.120867 0.434718 0.120867
0.120807 0.434504 0.120807
0.120736 0.434248 0.120736
0.120653 0.433949 0.120653
0.120557 0.433603 0.120557
0.120446 0.433206 0.120446
0.120321 0.432755 0.120321
0.120179 0.432245 0.120179
0.155021 0.435267 0.123615
0.216553 0.440964 0.129775
0.262471 0.444987 0.134314
0.303087 0.448343 0.138276
0.343199 0.451447 0.142135
0.383919 0.454357 0.145991
0.426004 0.457079 0.149903
0.470051 0.459581 0.153908
0.516579 0.461793 0.158028
0.566075 0.463602 0.162271
0.619011 0.464846 0.166632
0.675859 0.465291 0.171086
0.737096 0.464607 0.175585
0.803201 0.462335 0.180048
0.829728 0.453206 0.179728
0.825251 0.437102 0.175251
0.819266 0.415576 0.169266
0.811105 0.386224 0.161105
0.799591 0.344810 0.149591
0.133465 0.480031 0.133465
0.133461 0.480017 0.133461
0.133450 0.479975 0.133450
0.133430 0.479904 0.133430
0.133402 0.479804 0.133402
0.133365 0.479672 0.133365
0.133320 0.479509 0.133320
0.133265 0.479311 0.133265
0.133200 0.479077 0.133200
0.133124 0.478804 0.133124
0.133036 0.478489 0.133036
0.132936 0.478129 0.132936
0.132823 0.477722 0.132823
0.132695 0.477262 0.132695
0.132552 0.476748 0.132552
0.166899 0.479720 0.135938
0.233539 0.485947 0.142624
0.284525 0.490460 0.147675
0.331215 0.494356 0.152240
0.376661 0.497901 0.156620
0.422397 0.501191 0.160956
0.469397 0.504245 0.165328
0.518396 0.507033 0.169785
0.570009 0.509480 0.174353
0.624799 0.511463 0.179045
0.683304 0.512799 0.183854
0.746056 0.513223 0.188754
0.813586 0.512366 0.193689
0.844233 0.505374 0.194233
0.840431 0.491699 0.190431
0.835405 0.473623 0.185405
0.828672 0.449405 0.178672
0.819459 0.416272 0.169459
0.147273 0.529695 0.147273
0.147270 0.529682 0.147270
0.147259 0.529643 0.147259
0.147241 0.529577 0.147241
0.147215 0.529484 0.147215
0.147181 0.529363 0.147181
0.147139 0.529212 0.147139
0.147088 0.529030 0.147088
0.147029 0.528815 0.147029
0.146959 0.528565 0.146959
0.146880 0.528278 0.146880
0.146789 0.527952 0.146789
0.146686 0.527583 0.146686
0.146571 0.527170 0.146571
0.146443 0.526708 0.146443
0.146300 0.526195 0.146300
0.170996 0.528181 0.148696
0.249054 0.535555 0.156548
0.309232 0.540939 0.162525
0.362705 0.545440 0.167763
0.414026 0.549472 0.172716
0.465257 0.553178 0.177579
0.517636 0.556595 0.182455
0.572050 0.559696 0.187405
0.629227 0.562401 0.192465
0.689812 0.564575 0.197648
0.754417 0.566011 0.202949
0.823639 0.566415 0.208337
0.859822 0.561443 0.209822
0.856582 0.549791 0.206582
0.852333 0.534508 0.202333
0.846708 0.514275 0.196708
0.839156 0.487115 0.189156
0.162577 0.584736 0.162577
0.162573 0.584724 0.162573
0.162563 0.584687 0.162563
0.162546 0.584626 0.162546
0.162522 0.584540 0.162522
0.162491 0.584428 0.162491
0.162452 0.584289 0.162452
0.162406 0.584121 0.162406
0.162351 0.583924 0.162351
0.162287 0.583695 0.162287
0.162215 0.583434 0.162215
0.162132 0.583137 0.162132
0.162040 0.582804 0.162040
0.161936 0.582431 0.161936
0.161820 0.582015 0.161820
0.161693 0.581556 0.161693
0.161552 0.581049 0.161552
0.168846 0.581225 0.162154
0.266005 0.590497 0.171952
0.336874 0.596899 0.179006
0.397890 0.602074 0.184993
0.455666 0.606641 0.190576
0.512914 0.610803 0.196015
0.571174 0.614617 0.201442
0.631514 0.618060 0.206933
0.694779 0.621049 0.212530
0.761710 0.623431 0.218251
0.832999 0.624979 0.224091
0.876661 0.622009 0.226661
0.873894 0.612056 0.223894
0.870286 0.599079 0.220286
0.865548 0.582039 0.215548
0.859268 0.559450 0.209268
0.179516 0.645661 0.179516
0.179513 0.645650 0.179513
0.179503 0.645616 0.179503
0.179488 0.645559 0.179488
0.179465 0.645479 0.179465
0.179437 0.645375 0.179437
0.179401 0.645247 0.179401
0.179358 0.645093 0.179358
0.179308 0.644912 0.179308
0.179250 0.644703 0.179250
0.179183 0.644464 0.179183
0.179108 0.644194 0.179108
0.179024 0.643892 0.179024
0.178930 0.643554 0.178930
0.178826 0.643180 0.178826
0.178712 0.642768 0.178712
0.178585 0.642314 0.178585
0.178439 0.641787 0.178439
0.178259 0.641139 0.178259
0.284497 0.651274 0.188972
0.367760 0.658861 0.197276
0.437131 0.664784 0.204093
0.501986 0.669938 0.210368
0.565817 0.674598 0.216437
0.630512 0.678846 0.222467
0.697334 0.682664 0.228549
0.767265 0.685962 0.234734
0.841149 0.688574 0.241045
0.894924 0.687694 0.244924
0.892556 0.679177 0.242556
0.889483 0.668123 0.239483
0.885472 0.653697 0.235472
0.880200 0.634737 0.230200
0.198246 0.713027 0.198246
0.198243 0.713016 0.198243
0.198234 0.712985 0.198234
0.198220 0.712932 0.198220
0.198199 0.712858 0.198199
0.198173 0.712762 0.198173
0.198140 0.712644 0.198140
0.198100 0.712502 0.198100
0.198054 0.712336 0.198054
0.198001 0.712144 0.198001
0.197940 0.711926 0.197940
0.197872 0.711680 0.197872
0.197795 0.711405 0.197795
0.197710 0.711100 0.197710
0.197616 0.710762 0.197616
0.197513 0.710391 0.197513
0.197400 0.709984 0.197400
0.197269 0.709513 0.197269
0.197108 0.708935 0.197108
0.196910 0.708223 0.196910
0.304642 0.718434 0.207757
0.402226 0.727397 0.217508
0.480822 0.734145 0.225241
0.553431 0.739943 0.232273
0.624462 0.745148 0.239032
0.696195 0.749870 0.245721
0.770112 0.754098 0.252449
