src/matting/luts/hlg_to_sdr.cube
# HLG(arib-std-b67,bt2020) -> SDR bt709. gain2.0 sysg1.2 sat0.65
LUT_3D_SIZE 5
0.000000 0.000000 0.000000
0.078056 0.008018 0.008018
0.244909 0.025157 0.025157
0.519604 0.053373 0.053373
0.724410 0.074410 0.074410
0.022673 0.081549 0.022673
0.087897 0.084489 0.028408
0.261223 0.080373 0.040582
0.521932 0.053612 0.053612
0.724410 0.074410 0.074410
0.075540 0.271694 0.075540
0.075118 0.270174 0.075118
0.293319 0.286115 0.095869
0.583913 0.283876 0.117478
0.724410 0.074410 0.074410
0.162577 0.584736 0.162577
0.162351 0.583924 0.162351
0.161552 0.581049 0.161552
0.631514 0.618060 0.206933
0.859268 0.559450 0.209268
0.250320 0.900320 0.250320
0.250320 0.900320 0.250320
0.250320 0.900320 0.250320
0.250320 0.900320 0.250320
0.974730 0.974730 0.324730
0.001389 0.001389 0.037116
0.079693 0.009906 0.059207
0.247232 0.027486 0.087415
0.522083 0.055836 0.119160
0.725308 0.075308 0.098416
0.024973 0.084369 0.078956
0.086606 0.086606 0.086606
0.262676 0.082255 0.102330
0.524043 0.055873 0.114468
0.724949 0.074949 0.088809
0.077571 0.274016 0.126930
0.077114 0.272411 0.126102
0.293373 0.287934 0.144869
0.584885 0.285219 0.158101
0.724410 0.074410 0.074410
0.162643 0.584976 0.162643
0.162414 0.584150 0.162414
0.161604 0.581237 0.161604
0.630472 0.618051 0.206851
0.859237 0.559338 0.209237
0.250320 0.900320 0.250320
0.250320 0.900320 0.250320
0.250320 0.900320 0.250320
0.250320 0.900320 0.250320
0.974730 0.974730 0.324730
0.005586 0.005586 0.149262
0.079917 0.013710 0.171416
0.251164 0.031943 0.208058
0.527137 0.060948 0.255918
0.732416 0.082416 0.288357
0.029858 0.090413 0.198023
0.079128 0.090451 0.206818
0.264547 0.085597 0.229778
0.528806 0.061163 0.257387
0.732331 0.082331 0.286089
0.083188 0.280443 0.268999
0.082745 0.278706 0.269979
0.293377 0.293377 0.293377
0.589290 0.290766 0.321272
0.732044 0.082044 0.278419
0.169965 0.592805 0.353261
0.169724 0.591938 0.353037
0.168880 0.588909 0.352113
0.634388 0.625087 0.395752
0.865675 0.565531 0.383714
0.250320 0.900320 0.250320
0.250320 0.900320 0.250320
0.250320 0.900320 0.250320
0.250320 0.900320 0.250320
0.974730 0.974730 0.324730
0.012602 0.012602 0.336756
0.059123 0.017742 0.352258
0.252774 0.038346 0.393277
0.533457 0.068217 0.452954
0.740923 0.090923 0.515684
0.037227 0.098972 0.383153
0.045599 0.092895 0.388412
0.260725 0.087471 0.417606
0.533935 0.068432 0.457929
0.740943 0.090943 0.516219
0.091294 0.290438 0.466894
0.090762 0.288259 0.469003
0.282815 0.299995 0.493760
0.591741 0.296781 0.531373
0.740978 0.090978 0.517142
0.179030 0.603245 0.581874
0.178791 0.602299 0.582503
0.177959 0.599060 0.584099
0.633792 0.633792 0.633792
0.875363 0.574484 0.649883
0.265443 0.915443 0.654449
0.265440 0.915440 0.654372
0.265431 0.915431 0.654123
0.265398 0.915398 0.653234
0.989593 0.989593 0.721909
0.025270 0.025270 0.675270
0.025270 0.025270 0.675270
0.208050 0.044045 0.694045
0.529700 0.077084 0.727084
0.749680 0.099680 0.749680
0.045715 0.098804 0.695715
0.042430 0.086990 0.692430
0.195666 0.066748 0.698930
0.526308 0.076736 0.726736
0.749680 0.099680 0.749680
0.103136 0.305329 0.753136
0.102153 0.301794 0.752153
0.170873 0.297450 0.756283
0.573077 0.295938 0.786599
0.749680 0.099680 0.749680
0.190294 0.618809 0.840294
0.189919 0.617458 0.839919
0.188705 0.613094 0.838705
0.598964 0.640548 0.877075
0.882855 0.578668 0.882855
0.275590 0.925590 0.925590
0.275590 0.925590 0.925590
0.275590 0.925590 0.925590
0.275590 0.925590 0.925590
1.000000 1.000000 1.000000
