src/matting/luts/hlg_to_sdr.cube
# HLG(arib-std-b67,bt2020) -> SDR bt709. gain2.0 sysg1.2 sat0.65
LUT_3D_SIZE 9
0.000000 0.000000 0.000000
0.015080 0.001549 0.001549
0.078056 0.008018 0.008018
0.160350 0.016471 0.016471
0.244909 0.025157 0.025157
0.353132 0.036273 0.036273
0.519604 0.053373 0.053373
0.724410 0.074410 0.074410
0.724410 0.074410 0.074410
0.004297 0.015457 0.004297
0.016659 0.015980 0.005376
0.081428 0.018508 0.010969
0.161490 0.016802 0.016643
0.245985 0.025267 0.025267
0.354085 0.036371 0.036371
0.520381 0.053453 0.053453
0.724410 0.074410 0.074410
0.724410 0.074410 0.074410
0.022673 0.081549 0.022673
0.022474 0.080830 0.022474
0.087897 0.084489 0.028408
0.177797 0.085878 0.035627
0.261223 0.080373 0.040582
0.362341 0.062095 0.043607
0.521932 0.053612 0.053612
0.724410 0.074410 0.074410
0.724410 0.074410 0.074410
0.048748 0.175330 0.048748
0.048620 0.174871 0.048620
0.071941 0.175604 0.050589
0.189213 0.183933 0.061680
0.284007 0.186796 0.069652
0.393830 0.182999 0.077060
0.550360 0.154144 0.081600
0.724410 0.074410 0.074410
0.724410 0.074410 0.074410
0.075540 0.271694 0.075540
0.075445 0.271351 0.075445
0.075118 0.270174 0.075118
0.176111 0.278196 0.084888
0.293319 0.286115 0.095869
0.415075 0.289973 0.106154
0.583913 0.283876 0.117478
0.767433 0.229151 0.117433
0.724410 0.074410 0.074410
0.109831 0.395025 0.109831
0.109758 0.394763 0.109758
0.109520 0.393907 0.109520
0.109062 0.392261 0.109062
0.278014 0.406965 0.125736
0.426560 0.416894 0.139625
0.612405 0.422166 0.155167
0.816146 0.404354 0.166146
0.778490 0.268918 0.128490
0.162577 0.584736 0.162577
0.162522 0.584540 0.162522
0.162351 0.583924 0.162351
0.162040 0.582804 0.162040
0.161552 0.581049 0.161552
0.397890 0.602074 0.184993
0.631514 0.618060 0.206933
0.876661 0.622009 0.226661
0.859268 0.559450 0.209268
0.241777 0.869592 0.241777
0.241737 0.869448 0.241737
0.241613 0.869004 0.241613
0.241397 0.868228 0.241397
0.241074 0.867066 0.241074
0.240489 0.864960 0.240489
0.583301 0.895422 0.274482
0.939258 0.920117 0.307997
0.951026 0.889476 0.301026
0.250320 0.900320 0.250320
0.250320 0.900320 0.250320
0.250320 0.900320 0.250320
0.250320 0.900320 0.250320
0.250320 0.900320 0.250320
0.250320 0.900320 0.250320
0.250320 0.900320 0.250320
0.758311 0.952500 0.302500
0.974730 0.974730 0.324730
0.000263 0.000263 0.007032
0.015380 0.001906 0.011247
0.078495 0.008460 0.019832
0.160829 0.016944 0.029085
0.245375 0.025616 0.037400
0.353520 0.036655 0.046449
0.519746 0.053509 0.057005
0.724410 0.074410 0.074410
0.724410 0.074410 0.074410
0.004734 0.015999 0.014933
0.016379 0.016379 0.016379
0.081487 0.018843 0.022660
0.161762 0.017079 0.028443
0.246344 0.025676 0.036340
0.354386 0.036693 0.045041
0.520440 0.053518 0.055231
0.724410 0.074410 0.074410
0.724410 0.074410 0.074410
0.023090 0.082103 0.032442
0.022878 0.081348 0.032160
0.087401 0.084828 0.037651
0.177752 0.086149 0.044072
0.261272 0.080526 0.047487
0.362342 0.062062 0.047336
0.521892 0.053608 0.053608
0.724410 0.074410 0.074410
0.724410 0.074410 0.074410
0.048912 0.175590 0.052182
0.048771 0.175110 0.051789
0.070810 0.175656 0.052801
0.188666 0.183959 0.062486
0.283693 0.186777 0.069623
0.393645 0.182944 0.077032
0.550239 0.154003 0.081554
0.724410 0.074410 0.074410
0.724410 0.074410 0.074410
0.075569 0.271796 0.075569
0.075472 0.271449 0.075472
0.075141 0.270258 0.075141
0.175169 0.278163 0.084807
0.292876 0.286111 0.095834
0.414826 0.289960 0.106132
0.583776 0.283832 0.117456
0.767400 0.229033 0.117400
0.724410 0.074410 0.074410
0.109853 0.395105 0.109853
0.109779 0.394840 0.109779
0.109539 0.393978 0.109539
0.109079 0.392323 0.109079
0.277319 0.406942 0.125677
0.426215 0.416891 0.139598
0.612224 0.422154 0.155150
0.816137 0.404322 0.166137
0.778456 0.268795 0.128456
0.162594 0.584796 0.162594
0.162539 0.584599 0.162539
0.162367 0.583981 0.162367
0.162054 0.582856 0.162054
0.161565 0.581096 0.161565
0.397302 0.602051 0.184942
0.631254 0.618058 0.206913
0.876662 0.622013 0.226662
0.859260 0.559422 0.209260
0.241789 0.869637 0.241789
0.241749 0.869492 0.241749
0.241625 0.869048 0.241625
0.241409 0.868270 0.241409
0.241085 0.867106 0.241085
0.240499 0.864996 0.240499
0.582832 0.895402 0.274441
0.939065 0.920116 0.307982
0.951027 0.889478 0.301027
0.250320 0.900320 0.250320
0.250320 0.900320 0.250320
0.250320 0.900320 0.250320
0.250320 0.900320 0.250320
0.250320 0.900320 0.250320
0.250320 0.900320 0.250320
0.250320 0.900320 0.250320
0.757946 0.952462 0.302462
0.974730 0.974730 0.324730
0.001389 0.001389 0.037116
0.015747 0.003058 0.044362
0.079693 0.009906 0.059207
0.162455 0.018630 0.074326
0.247232 0.027486 0.087415
0.355590 0.038720 0.101640
0.522083 0.055836 0.119160
0.726559 0.076559 0.131825
0.725308 0.075308 0.098416
0.006207 0.017707 0.051959
0.015574 0.017702 0.054898
0.081797 0.020092 0.065190
0.163067 0.018736 0.075665
0.248068 0.027580 0.087738
0.356404 0.038787 0.101233
0.522766 0.055869 0.118105
0.726490 0.076490 0.130005
0.725219 0.075219 0.096034
0.024973 0.084369 0.078956
0.024763 0.083548 0.079420
0.086606 0.086606 0.086606
0.178570 0.087938 0.095867
0.262676 0.082255 0.102330
0.364116 0.063739 0.106106
0.524043 0.055873 0.114468
0.726271 0.076271 0.124135
0.724949 0.074949 0.088809
0.051035 0.177991 0.106155
0.050902 0.177496 0.106184
0.069204 0.177617 0.108006
0.189047 0.186078 0.119684
0.284912 0.188895 0.127743
0.395227 0.184920 0.134284
0.551861 0.155564 0.134543
0.725897 0.075897 0.114136
0.724489 0.074489 0.076512
0.077571 0.274016 0.126930
0.077468 0.273651 0.126744
0.077114 0.272411 0.126102
0.174171 0.279933 0.134820
0.293373 0.287934 0.144869
0.415824 0.291671 0.152863
0.584885 0.285219 0.158101
0.768230 0.229606 0.142129
0.724410 0.074410 0.074410
0.111186 0.396609 0.143797
0.111101 0.396328 0.143453
0.110825 0.395416 0.142383
0.110303 0.393679 0.140485
0.276305 0.407964 0.154741
0.426131 0.417834 0.165026
0.612324 0.422763 0.172333
0.816110 0.404225 0.166110
0.778352 0.268423 0.128352
0.162643 0.584976 0.162643
0.162588 0.584776 0.162588
0.162414 0.584150 0.162414
0.162098 0.583013 0.162098
0.161604 0.581237 0.161604
0.395528 0.601982 0.184789
0.630472 0.618051 0.206851
0.876665 0.622024 0.226665
0.859237 0.559338 0.209237
0.241826 0.869770 0.241826
0.241786 0.869625 0.241786
0.241661 0.869177 0.241661
0.241444 0.868394 0.241444
0.241118 0.867223 0.241118
0.240528 0.865103 0.240528
0.581422 0.895343 0.274318
0.938488 0.920111 0.307936
0.951029 0.889484 0.301029
0.250320 0.900320 0.250320
0.250320 0.900320 0.250320
0.250320 0.900320 0.250320
0.250320 0.900320 0.250320
0.250320 0.900320 0.250320
0.250320 0.900320 0.250320
0.250320 0.900320 0.250320
0.756851 0.952350 0.302350
0.974730 0.974730 0.324730
0.003426 0.003426 0.091546
0.015030 0.004808 0.098393
0.080609 0.011882 0.115143
0.164266 0.020776 0.132672
0.249373 0.029759 0.148557
0.357964 0.041140 0.166436
0.524725 0.058484 0.189925
0.729621 0.079621 0.213656
0.729288 0.079288 0.204766
0.008358 0.020060 0.107415
0.013444 0.019381 0.110476
0.081366 0.021561 0.122482
0.164370 0.020876 0.135315
0.249970 0.029868 0.150024
0.358675 0.041232 0.167052
0.525383 0.058547 0.189853
0.729596 0.079596 0.213000
0.729246 0.079246 0.203637
0.027430 0.087376 0.139187
0.027198 0.086431 0.140043
0.083996 0.088687 0.147833
0.178948 0.090001 0.159098
0.263975 0.084134 0.167784
0.365936 0.065424 0.174763
0.526614 0.058649 0.189270
0.729517 0.079517 0.210890
0.729115 0.079115 0.200145
0.053685 0.181075 0.172687
0.053550 0.180542 0.173030
0.065502 0.179915 0.175116
0.188587 0.188587 0.188587
0.285928 0.191435 0.198742
0.397040 0.187405 0.208425
0.554250 0.157856 0.214878
0.729369 0.079369 0.206933
0.728884 0.078884 0.193954
0.080503 0.277297 0.201827
0.080404 0.276921 0.201930
0.080067 0.275649 0.202148
0.172078 0.282613 0.211754
0.294060 0.290860 0.224022
0.417636 0.294681 0.235272
0.587506 0.288311 0.246797
0.771854 0.232797 0.243240
0.728528 0.078528 0.184442
0.114604 0.400305 0.232353
0.114526 0.400024 0.232293
0.114274 0.399114 0.232075
0.113793 0.397384 0.231586
0.276198 0.411309 0.247423
0.427979 0.421409 0.261095
0.615246 0.426537 0.274818
0.820303 0.408299 0.279333
0.781612 0.271234 0.219902
0.166501 0.589047 0.263598
0.166438 0.588837 0.263377
0.166241 0.588178 0.262696
0.165887 0.586988 0.261503
0.165337 0.585137 0.259714
0.396116 0.605443 0.280276
0.632549 0.621422 0.297256
0.879570 0.624941 0.304165
0.860675 0.560675 0.248689
0.242117 0.870220 0.248006
0.242058 0.870056 0.247504
0.241881 0.869551 0.245991
0.241574 0.868673 0.243446
0.241172 0.867418 0.241172
0.240578 0.865281 0.240578
0.579053 0.895241 0.274111
0.937522 0.920101 0.307860
0.951032 0.889494 0.301032
0.250320 0.900320 0.250320
0.250320 0.900320 0.250320
0.250320 0.900320 0.250320
0.250320 0.900320 0.250320
0.250320 0.900320 0.250320
0.250320 0.900320 0.250320
0.250320 0.900320 0.250320
0.755017 0.952162 0.302162
0.974730 0.974730 0.324730
0.005586 0.005586 0.149262
0.011863 0.006389 0.154594
0.079917 0.013710 0.171416
0.165432 0.022836 0.190333
0.251164 0.031943 0.208058
0.360102 0.043443 0.228462
0.527137 0.060948 0.255918
0.732325 0.082325 0.285922
0.732416 0.082416 0.288357
0.010482 0.022209 0.163949
0.010150 0.020727 0.166470
0.079062 0.022550 0.179092
0.164903 0.022897 0.193709
0.251432 0.032042 0.210223
0.360652 0.043539 0.229695
0.527732 0.061022 0.256380
0.732319 0.082319 0.285769
0.732396 0.082396 0.287804
0.029858 0.090413 0.198023
0.029589 0.089311 0.199100
0.079128 0.090451 0.206818
0.178182 0.091736 0.219575
0.264547 0.085597 0.229778
0.367206 0.066553 0.238859
0.528806 0.061163 0.257387
0.732298 0.082298 0.285189
0.732331 0.082331 0.286089
0.056232 0.184169 0.235310
0.056087 0.183581 0.235851
0.058952 0.181876 0.237584
0.186500 0.190813 0.252435
0.285973 0.193672 0.264011
0.398150 0.189486 0.275624
0.555989 0.159472 0.285372
0.732248 0.082248 0.283863
0.732218 0.082218 0.283048
0.083188 0.280443 0.268999
0.083087 0.280043 0.269269
0.082745 0.278706 0.269979
0.167217 0.284804 0.279608
0.293377 0.293377 0.293377
0.418473 0.297224 0.306469
0.589290 0.290766 0.321272
0.774644 0.234976 0.323843
0.732044 0.082044 0.278419
0.117518 0.403596 0.306484
0.117442 0.403307 0.306574
0.117195 0.402373 0.306801
0.116725 0.400607 0.307047
0.273873 0.413951 0.323356
0.428404 0.424282 0.338957
0.616988 0.429484 0.356076
0.823535 0.411363 0.367384
0.785249 0.274239 0.323358
0.169965 0.592805 0.353261
0.169907 0.592595 0.353209
0.169724 0.591938 0.353037
0.169394 0.590752 0.352696
0.168880 0.588909 0.352113
0.395371 0.608790 0.374259
0.634388 0.625087 0.395752
0.883629 0.629015 0.412461
0.865675 0.565531 0.383714
0.247763 0.876088 0.396693
0.247716 0.875933 0.396505
0.247571 0.875456 0.395933
0.247320 0.874626 0.394955
0.246946 0.873388 0.393536
0.246275 0.871156 0.391065
0.581179 0.900571 0.420198
0.941295 0.925218 0.444909
0.955295 0.893767 0.414862
0.250320 0.900320 0.250320
0.250320 0.900320 0.250320
0.250320 0.900320 0.250320
0.250320 0.900320 0.250320
0.250320 0.900320 0.250320
0.250320 0.900320 0.250320
0.250320 0.900320 0.250320
0.752436 0.951896 0.301896
0.974730 0.974730 0.324730
0.008350 0.008350 0.223130
0.008494 0.008494 0.226966
0.075702 0.015702 0.242922
0.165520 0.025285 0.262739
0.252690 0.034583 0.281907
0.362381 0.046234 0.304541
0.529908 0.063911 0.335677
0.735522 0.085522 0.371339
0.735948 0.085948 0.382717
0.013054 0.024419 0.236262
0.012638 0.022648 0.238566
0.072492 0.022950 0.250210
0.164117 0.025275 0.266560
0.252475 0.034653 0.284606
0.362675 0.046322 0.306288
0.530390 0.063990 0.336585
0.735531 0.085531 0.371575
0.735941 0.085941 0.382533
0.032862 0.094102 0.271521
0.032539 0.092785 0.272720
0.069314 0.092082 0.279561
0.175349 0.093403 0.293828
0.264153 0.086870 0.305412
0.368048 0.067280 0.316385
0.531175 0.064146 0.338905
0.735552 0.085552 0.372159
0.735918 0.085918 0.381932
0.059381 0.188093 0.311794
0.059218 0.187418 0.312497
0.058651 0.185133 0.314365
0.181379 0.193264 0.329509
0.284692 0.196169 0.342530
0.398687 0.191705 0.355931
0.557530 0.160838 0.368554
0.735575 0.085575 0.372768
0.735875 0.085875 0.380786
0.086451 0.284404 0.349277
0.086343 0.283964 0.349691
0.085983 0.282515 0.350828
0.156628 0.287031 0.359731
0.290770 0.296237 0.375251
0.418464 0.300104 0.390061
0.590802 0.293422 0.407680
0.777677 0.236980 0.415068
0.735804 0.085804 0.378896
0.120947 0.407619 0.392265
0.120870 0.407312 0.392478
0.120620 0.406327 0.393070
0.120145 0.404484 0.393912
0.268122 0.416792 0.410094
0.427492 0.427493 0.427492
0.618206 0.432721 0.447307
0.827025 0.414566 0.463484
0.788782 0.276716 0.428233
0.173733 0.597046 0.449280
0.173677 0.596831 0.449337
0.173499 0.596157 0.449491
0.173177 0.594946 0.449690
0.172675 0.593073 0.449856
0.391774 0.612149 0.472468
0.635071 0.628820 0.496827
0.887612 0.633019 0.518704
0.869937 0.569553 0.499991
0.252380 0.881066 0.516487
0.252336 0.880912 0.516430
0.252204 0.880439 0.516254
0.251972 0.879614 0.515938
0.251627 0.878386 0.515454
0.251003 0.876173 0.514546
0.580273 0.905049 0.546318
0.944028 0.930184 0.578280
0.960912 0.899398 0.564814
0.258168 0.908168 0.460026
0.258162 0.908162 0.459880
0.258146 0.908146 0.459439
0.258118 0.908118 0.458698
0.258079 0.908079 0.457646
0.258012 0.908012 0.455871
0.257874 0.907874 0.452167
0.755381 0.958708 0.495296
0.981293 0.981293 0.500095
0.012602 0.012602 0.336756
0.012714 0.012714 0.339742
0.059123 0.017742 0.352258
0.161487 0.028601 0.372997
0.252774 0.038346 0.393277
0.364613 0.050279 0.417965
0.533457 0.068217 0.452954
0.740145 0.090145 0.494873
0.740923 0.090923 0.515684
0.016639 0.026430 0.347632
0.016112 0.024293 0.349499
0.052427 0.021344 0.358059
0.158700 0.028457 0.376912
0.251765 0.038349 0.396342
0.364456 0.050337 0.420170
0.533721 0.068288 0.454303
0.740168 0.090168 0.495498
0.740929 0.090929 0.515829
0.037227 0.098972 0.383153
0.036814 0.097327 0.384340
0.045599 0.092895 0.388412
0.166000 0.094533 0.404572
0.260725 0.087471 0.417606
0.367513 0.066918 0.430458
0.533935 0.068432 0.457929
0.740233 0.090233 0.497234
0.740943 0.090943 0.516219
0.064072 0.193930 0.425809
0.063872 0.193106 0.426637
0.063206 0.190414 0.428894
0.166936 0.196031 0.442779
0.279583 0.199241 0.457739
0.397589 0.194269 0.473119
0.558560 0.161610 0.488709
0.740326 0.090326 0.499725
0.740962 0.090962 0.516721
0.091294 0.290438 0.466894
0.091169 0.289921 0.467448
0.090762 0.288259 0.469003
0.128015 0.289036 0.475170
0.282815 0.299995 0.493760
0.416241 0.303948 0.510660
0.591741 0.296781 0.531373
0.781703 0.238874 0.543775
0.740978 0.090978 0.517142
0.125954 0.413710 0.515317
0.125870 0.413366 0.515656
0.125602 0.412275 0.516623
0.125099 0.410269 0.518079
0.252608 0.420276 0.533000
0.423264 0.431854 0.552899
0.618410 0.437094 0.575699
0.831795 0.418730 0.596927
0.793266 0.279036 0.569498
0.179030 0.603245 0.581874
0.178972 0.603015 0.582036
0.178791 0.602299 0.582503
0.178465 0.601021 0.583219
0.177959 0.599060 0.584099
0.381217 0.616381 0.606238
0.633792 0.633792 0.633792
0.892931 0.638361 0.660606
0.875363 0.574484 0.649883
0.258270 0.887664 0.666892
0.258229 0.887506 0.666930
0.258100 0.887021 0.667035
0.257876 0.886177 0.667188
0.257542 0.884924 0.667356
0.256938 0.882675 0.667523
0.574329 0.910265 0.700214
0.945366 0.936059 0.737184
0.967206 0.905714 0.732795
0.265443 0.915443 0.654449
0.265443 0.915443 0.654430
0.265440 0.915440 0.654372
0.265437 0.915437 0.654272
0.265431 0.915431 0.654123
0.265421 0.915421 0.653854
0.265398 0.915398 0.653234
0.754330 0.965568 0.701915
0.989593 0.989593 0.721909
0.018987 0.018987 0.507368
0.019071 0.019071 0.509621
0.019305 0.019305 0.515870
0.141825 0.032194 0.537477
0.245800 0.043230 0.558724
0.363979 0.055841 0.584848
0.536698 0.074274 0.623112
0.746748 0.096748 0.671322
0.747892 0.097892 0.701894
0.021081 0.025983 0.514762
0.020424 0.023424 0.516065
0.019482 0.019482 0.520600
0.136631 0.031796 0.540947
0.243583 0.043114 0.561800
0.363110 0.055838 0.587309
0.536586 0.074321 0.624824
0.746785 0.096785 0.672317
0.747909 0.097909 0.702346
0.043026 0.103584 0.549889
0.042483 0.101476 0.550868
0.040711 0.094667 0.553419
0.135035 0.091884 0.566581
0.247375 0.084836 0.581508
0.361705 0.062905 0.595897
0.535787 0.074401 0.629551
0.746891 0.096891 0.675152
0.747957 0.097957 0.703649
0.070764 0.201702 0.593906
0.070503 0.200652 0.594757
0.069668 0.197326 0.597124
0.119300 0.196466 0.605764
0.263033 0.201730 0.624480
0.390929 0.196051 0.641945
0.556838 0.159670 0.660001
0.747051 0.097051 0.679434
0.748033 0.098033 0.705658
0.098311 0.299143 0.637702
0.098155 0.298499 0.638351
0.097658 0.296473 0.640200
0.096738 0.292794 0.642973
0.259642 0.303925 0.663159
0.407432 0.308419 0.682819
0.590013 0.300383 0.706776
0.786765 0.239382 0.724164
0.748126 0.098126 0.708158
0.133191 0.422743 0.690897
0.133091 0.422330 0.691347
0.132779 0.421042 0.692649
0.132209 0.418731 0.694662
0.205647 0.422805 0.704811
0.410108 0.437310 0.729452
0.615176 0.442669 0.755719
0.838244 0.423853 0.782419
0.798800 0.280050 0.762148
0.186537 0.612389 0.766258
0.186473 0.612128 0.766522
0.186276 0.611322 0.767290
0.185925 0.609902 0.768505
0.185387 0.607754 0.770072
0.351983 0.621035 0.789566
0.627239 0.640308 0.821619
0.900156 0.645562 0.853920
0.882485 0.580566 0.850502
0.266242 0.896983 0.866578
0.266200 0.896814 0.866699
0.266069 0.896295 0.867053
0.265842 0.895397 0.867619
0.265503 0.894071 0.868361
0.264895 0.891708 0.869467
0.556539 0.916451 0.901362
0.943557 0.943557 0.943557
0.975226 0.913749 0.946979
0.273973 0.923973 0.882392
0.273976 0.923976 0.882450
0.273982 0.923982 0.882623
0.273993 0.923993 0.882906
0.274007 0.924007 0.883292
0.274030 0.924030 0.883906
0.274073 0.924073 0.885052
0.744754 0.972487 0.935368
0.998663 0.998663 0.964271
0.025270 0.025270 0.675270
0.025270 0.025270 0.675270
0.025270 0.025270 0.675270
0.044454 0.027241 0.677241
0.208050 0.044045 0.694045
0.346129 0.058228 0.708228
0.529700 0.077084 0.727084
0.749680 0.099680 0.749680
0.749680 0.099680 0.749680
0.025270 0.025270 0.675270
0.025270 0.025270 0.675270
0.025270 0.025270 0.675270
0.032748 0.026038 0.676038
0.203587 0.043586 0.693586
0.344103 0.058020 0.708020
0.528931 0.077005 0.727005
0.749680 0.099680 0.749680
0.749680 0.099680 0.749680
0.045715 0.098804 0.695715
0.044858 0.095722 0.694858
0.042430 0.086990 0.692430
0.038247 0.071945 0.688247
0.195666 0.066748 0.698930
0.337465 0.057338 0.707338
0.526308 0.076736 0.726736
0.749680 0.099680 0.749680
0.749680 0.099680 0.749680
0.075338 0.205347 0.725338
0.074947 0.203943 0.724947
0.073736 0.199588 0.723736
0.071581 0.191837 0.721581
0.201661 0.193591 0.731962
0.361218 0.187632 0.742612
0.539343 0.142263 0.744559
0.749680 0.099680 0.749680
0.749680 0.099680 0.749680
0.103136 0.305329 0.753136
0.102895 0.304463 0.752895
0.102153 0.301794 0.752153
0.100851 0.297109 0.750851
0.170873 0.297450 0.756283
0.373020 0.305647 0.773820
0.573077 0.295938 0.786599
0.785233 0.227553 0.785233
0.749680 0.099680 0.749680
0.137696 0.429631 0.787696
0.137544 0.429082 0.787544
0.137075 0.427396 0.787075
0.136258 0.424457 0.786258
0.135040 0.420077 0.785040
0.364423 0.435966 0.806631
0.594898 0.441891 0.825747
0.839228 0.421757 0.839228
0.796447 0.267885 0.796447
0.190294 0.618809 0.840294
0.190202 0.618476 0.840202
0.189919 0.617458 0.839919
0.189429 0.615696 0.839429
0.188705 0.613094 0.838705
0.237650 0.613622 0.842577
0.598964 0.640548 0.877075
0.901833 0.646925 0.901833
0.882855 0.578668 0.882855
0.269109 0.902280 0.919109
0.269053 0.902078 0.919053
0.268881 0.901460 0.918881
0.268587 0.900401 0.918587
0.268157 0.898857 0.918157
0.267405 0.896151 0.917405
0.497328 0.913946 0.939527
0.924648 0.944142 0.979903
0.976294 0.914737 0.976294
0.275590 0.925590 0.925590
0.275590 0.925590 0.925590
0.275590 0.925590 0.925590
0.275590 0.925590 0.925590
0.275590 0.925590 0.925590
0.275590 0.925590 0.925590
0.275590 0.925590 0.925590
0.706215 0.969823 0.969823
1.000000 1.000000 1.000000
